dist/img/svg/ic_prev.svg

<svg width="20" height="20" viewBox="0 0 20 20" fill="none" xmlns="http://www.w3.org/2000/svg">
<path d="M5.82042 10.4521C5.83067 10.3002 5.89614 10.156 6.00621 10.0421L12.6973 3.22786C12.8296 3.09239 13.0154 3.01075 13.2133 3.00101C13.4115 2.99114 13.6057 3.05413 13.7531 3.17581C13.9005 3.29737 13.9889 3.4679 13.999 3.64946C14.0091 3.83104 13.9399 4.00879 13.8068 4.14356L7.56303 10.5L13.8068 16.8564C13.9399 16.9912 14.0091 17.169 13.999 17.3505C13.9889 17.5321 13.9005 17.7026 13.7531 17.8242C13.6057 17.9459 13.4115 18.0089 13.2133 17.999C13.0154 17.9892 12.8296 17.9076 12.6973 17.7721L6.00621 10.9579C5.8719 10.8194 5.80474 10.6368 5.82042 10.4521V10.4521Z" fill="#202125"/>
</svg>

<svg width="20" height="20" viewBox="0 0 20 20" fill="none" xmlns="http://www.w3.org/2000/svg"><path d="M5.82 10.452a.653.653 0 01.186-.41l6.691-6.814A.775.775 0 0113.213 3a.788.788 0 01.54.175.663.663 0 01.246.473c.01.182-.06.36-.192.495L7.563 10.5l6.244 6.356a.651.651 0 01.192.494.663.663 0 01-.246.474.788.788 0 01-.54.175.775.775 0 01-.516-.227l-6.69-6.814a.647.647 0 01-.187-.506z" fill="#202125"/></svg>
